apps/statesvisited/state-images/SD.svg

<svg height="635" width="1182" xmlns="http://www.w3.org/2000/svg"><path d="m501.13572 136.56864s0 5.34539 1.4848 7.12718c1.4849 1.7818 4.7515 5.04843 4.7515 5.04843l-1.7818 37.7147s-1.4848.59393-1.4848 1.78179c0 1.18787 3.8605 8.31506 3.8605 10.09685 0 1.7818-1.4848 7.72112-1.4848 7.72112s-8.0181-5.64235-10.9877-5.93932c-2.9697-.29697-8.909-.8909-8.909-.8909l-3.5636 2.07877s-1.1879-4.15753-8.612-5.04843c-7.4242-.8909-27.9149-2.07876-40.3874-2.37573-12.4726-.29696-29.3997-2.37573-33.2602-2.37573-3.8606 0-11.5817.8909-11.5817.8909s3.2666-22.27246 2.9696-25.53909c-.2969-3.26662 2.3758-18.4119 2.0788-23.75729s.5939-13.66044.5939-13.66044 27.6179 1.18786 33.8542 1.7818c6.2363.59393 27.6178.59393 34.745 1.18786s25.5391 2.37573 29.1027 2.37573 8.909 1.48483 8.612 1.7818z" fill="#f6d55c" fill-rule="evenodd" opacity=".9" stroke="#000"/></svg>

<?xml version="1.0" encoding="UTF-8" standalone="no"?>
<!-- Created with Inkscape (http://www.inkscape.org/) -->
<svg
   xmlns:dc="http://purl.org/dc/elements/1.1/"
   xmlns:cc="http://web.resource.org/cc/"
   xmlns:rdf="http://www.w3.org/1999/02/22-rdf-syntax-ns#"
   xmlns:svg="http://www.w3.org/2000/svg"
   xmlns="http://www.w3.org/2000/svg"
   xmlns:xlink="http://www.w3.org/1999/xlink"
   xmlns:sodipodi="http://sodipodi.sourceforge.net/DTD/sodipodi-0.dtd"
   xmlns:inkscape="http://www.inkscape.org/namespaces/inkscape"
   id="svg1923"
   sodipodi:version="0.32"
   inkscape:version="0.44"
   width="1182"
   height="635"
   version="1.0"
   sodipodi:docbase="/Users/amyshore/Desktop"
   sodipodi:docname="usa.svg">
  <metadata
     id="metadata1928">
    <rdf:RDF>
      <cc:Work
         rdf:about="">
        <dc:format>image/svg+xml</dc:format>
        <dc:type
           rdf:resource="http://purl.org/dc/dcmitype/StillImage" />
      </cc:Work>
    </rdf:RDF>
  </metadata>
  <defs
     id="defs1926" />
  <sodipodi:namedview
     inkscape:window-height="752"
     inkscape:window-width="1280"
     inkscape:pageshadow="2"
     inkscape:pageopacity="0.0"
     guidetolerance="10.0"
     gridtolerance="10.0"
     objecttolerance="10.0"
     borderopacity="1.0"
     bordercolor="#666666"
     pagecolor="#ffffff"
     id="base"
     inkscape:zoom="0.59527559"
     inkscape:cx="775.234"
     inkscape:cy="319.32597"
     inkscape:window-x="0"
     inkscape:window-y="22"
     inkscape:current-layer="layer2" />
  <g
     inkscape:groupmode="layer"
     id="layer1"
     inkscape:label="bg"
     style="opacity:1;display:none"
     sodipodi:insensitive="true">
    <image
       xlink:href="ElectoralCollege1996-Large.png"
       sodipodi:absref="/Users/amyshore/Desktop/ElectoralCollege1996-Large.png"
       width="1182"
       height="635"
       id="image1930"
       x="-1.3571358"
       y="1.6798911" />
  </g>
  <g
     inkscape:groupmode="layer"
     id="layer2"
     inkscape:label="vector"
     style="opacity:0.9;display:inline"> <path style="fill:#f6d55c;fill-opacity:1;fill-rule:evenodd;stroke:black;stroke-width:1px;stroke-linecap:butt;stroke-linejoin:miter;stroke-opacity:1" d="M 501.13572,136.56864 C 501.13572,136.56864 501.13572,141.91403 502.62052,143.69582 C 504.10542,145.47762 507.37202,148.74425 507.37202,148.74425 L 505.59022,186.45895 C 505.59022,186.45895 504.10542,187.05288 504.10542,188.24074 C 504.10542,189.42861 507.96592,196.5558 507.96592,198.33759 C 507.96592,200.11939 506.48112,206.05871 506.48112,206.05871 C 506.48112,206.05871 498.46302,200.41636 495.49342,200.11939 C 492.52372,199.82242 486.58442,199.22849 486.58442,199.22849 L 483.02082,201.30726 C 483.02082,201.30726 481.83292,197.14973 474.40882,196.25883 C 466.98462,195.36793 446.49392,194.18007 434.02142,193.8831 C 421.54882,193.58614 404.62172,191.50737 400.76122,191.50737 C 396.90062,191.50737 389.17952,192.39827 389.17952,192.39827 C 389.17952,192.39827 392.44612,170.12581 392.14912,166.85918 C 391.85222,163.59256 394.52492,148.44728 394.22792,143.10189 C 393.93092,137.7565 394.82182,129.44145 394.82182,129.44145 C 394.82182,129.44145 422.43972,130.62931 428.67602,131.22325 C 434.91232,131.81718 456.29382,131.81718 463.42102,132.41111 C 470.54822,133.00504 488.96012,134.78684 492.52372,134.78684 C 496.08732,134.78684 501.43272,136.27167 501.13572,136.56864 z " id="path12632" />   </g>
</svg>
